public/images/flags/CL.svg

<svg width="21" height="15" viewBox="0 0 21 15" fill="none" xmlns="http://www.w3.org/2000/svg">
<path d="M8.49902 8.50001V0.500005H18.991C19.3897 0.498942 19.7724 0.656074 20.0553 0.936919C20.3382 1.21776 20.4981 1.59938 20.5 1.99801V8.50001H8.49902Z" fill="#F7F7F7"/>
<path d="M18.991 1C19.257 0.998673 19.5126 1.1029 19.7017 1.28982C19.8909 1.47674 19.9981 1.73107 20 1.997V8H9V1H18.992H18.991ZM18.992 4.02761e-06H7.99902V9H21V1.997C20.9979 1.46594 20.7852 0.957407 20.4085 0.583011C20.0319 0.208615 19.5221 -0.00105969 18.991 4.02761e-06H18.992Z" fill="#E9EBF0"/>
<path d="M2.27146e-10 8V12.994C-7.97006e-06 13.5241 0.209826 14.0327 0.583649 14.4086C0.957471 14.7845 1.46488 14.9971 1.995 15H19.005C19.268 15.0003 19.5284 14.9485 19.7713 14.8476C20.0142 14.7468 20.2347 14.5989 20.4202 14.4124C20.6056 14.2259 20.7524 14.0046 20.8519 13.7611C20.9514 13.5177 21.0017 13.257 21 12.994V8H2.27146e-10Z" fill="#E25950"/>
<path d="M1.99702 4.02706e-06C1.73453 -0.000523609 1.47453 0.0508031 1.23194 0.151037C0.989349 0.251272 0.768937 0.398439 0.58338 0.584089C0.397823 0.769738 0.250784 0.990214 0.150672 1.23286C0.0505587 1.4755 -0.000652761 1.73552 6.28086e-06 1.998V8H9.00001V4.02706e-06H1.99702Z" fill="#43458B"/>
<path d="M6.34004 3.42201L5.171 3.42401C5.13679 3.42399 5.10348 3.41314 5.07581 3.39302C5.04815 3.3729 5.02756 3.34454 5.01701 3.31201L4.65501 2.20001C4.64491 2.16677 4.62438 2.13766 4.59647 2.11697C4.56857 2.09628 4.53475 2.08511 4.50001 2.08511C4.46527 2.08511 4.43145 2.09628 4.40354 2.11697C4.37563 2.13766 4.35511 2.16677 4.34501 2.20001L3.98499 3.31101C3.97456 3.34389 3.95391 3.37259 3.92603 3.39291C3.89815 3.41324 3.8645 3.42413 3.83 3.42401H2.66001C2.62557 3.42378 2.59195 3.43453 2.56403 3.4547C2.53612 3.47487 2.51536 3.50342 2.50477 3.53619C2.49418 3.56897 2.4943 3.60426 2.50514 3.63696C2.51597 3.66965 2.53695 3.69804 2.56501 3.71801L3.51099 4.40501C3.5387 4.42528 3.55926 4.45384 3.56968 4.48655C3.5801 4.51926 3.57987 4.55444 3.56901 4.58701L3.21 5.70001C3.19894 5.7327 3.19863 5.76808 3.20908 5.80098C3.21954 5.83387 3.24023 5.86257 3.26814 5.88289C3.29604 5.9032 3.32969 5.91407 3.36421 5.91391C3.39872 5.91376 3.43228 5.90258 3.46 5.88201L4.40601 5.24801C4.43374 5.22777 4.46718 5.21687 4.5015 5.21687C4.53583 5.21687 4.56926 5.22777 4.59699 5.24801L5.54301 5.88201C5.57073 5.90258 5.60429 5.91376 5.6388 5.91391C5.67332 5.91407 5.707 5.9032 5.7349 5.88289C5.76281 5.86257 5.7835 5.83387 5.79395 5.80098C5.80441 5.76808 5.80407 5.7327 5.79301 5.70001L5.43202 4.58901C5.42102 4.5562 5.42082 4.52074 5.43144 4.48781C5.44205 4.45488 5.46292 4.42621 5.49101 4.40601L6.43702 3.71901C6.46508 3.699 6.48604 3.67056 6.49683 3.63783C6.50763 3.6051 6.50768 3.56978 6.49702 3.53701C6.4863 3.50402 6.46545 3.47525 6.43745 3.45479C6.40944 3.43432 6.3757 3.4232 6.34101 3.42301L6.34004 3.42201Z" fill="white"/>
</svg>

<svg width="21" height="15" fill="none" xmlns="http://www.w3.org/2000/svg"><path d="M8.499 8.5v-8h10.492A1.505 1.505 0 0 1 20.5 1.998V8.5H8.499z" fill="#F7F7F7"/><path d="M18.991 1A1.004 1.004 0 0 1 20 1.997V8H9V1h9.992-.001zm.001-1H7.999v9H21V1.997A2.005 2.005 0 0 0 18.991 0h.001z" fill="#E9EBF0"/><path d="M0 8v4.994A2.006 2.006 0 0 0 1.995 15h17.01A1.991 1.991 0 0 0 21 12.994V8H0z" fill="#E25950"/><path d="M1.997 0A1.993 1.993 0 0 0 0 1.998V8h9V0H1.997z" fill="#43458B"/><path d="M6.34 3.422l-1.169.002a.162.162 0 0 1-.154-.112L4.655 2.2a.162.162 0 0 0-.31 0l-.36 1.111a.162.162 0 0 1-.155.113H2.66a.162.162 0 0 0-.095.294l.946.687a.162.162 0 0 1 .058.182L3.21 5.7a.162.162 0 0 0 .25.182l.946-.634a.162.162 0 0 1 .191 0l.946.634a.162.162 0 0 0 .25-.182l-.361-1.111a.162.162 0 0 1 .059-.183l.946-.687a.162.162 0 0 0 0-.264.165.165 0 0 0-.096-.032l-.001-.001z" fill="#fff"/></svg>
